X:1
T:O Du Liebe, 87.87 D
T:O Du Liebe, 87.87 D
T:Musikalischer Christenschatz (Base
T:Public Domain Courtesy of the Cyber Hymnal™
C:Musikalischer Christenschatz (Base
Z:Public Domain
Z:Courtesy of the Cyber Hymnal™
%%score 1 ( 2 3 )
L:1/8
Q:1/4=110
M:4/4
K:G
V:1 treble 
V:2 bass 
V:3 bass 
V:1
 [DG]2 [DA]2 [DB]2 [Gd]2 | [Ec]2 [DB]2 [DA]2 [DA]2 | [DB]2 [DA]2 [B,G]2 [EA]2 | [DG]2 [DF]2 [DG]4 | %4
 [DG]2 [DA]2 [DB]2 [Gd]2 | [Ec]2 [DB]2 [DA]2 [DA]2 | [DB]2 [DA]2 [B,G]2 [EA]2 | [DG]2 [DF]2 [DG]4 | %8
 [DF]2 [DG]2 [EA]2 [DA]2 | [DG]2 [DF]2 [DE]2 [^CE]2 | [DF]2 [DG]2 [FA]2 [GB]2 | [Gc]2 [GB]2 [FA]4 | %12
 [EG]2 [DA]2 [DB]2 [Gd]2 | [Ec]2 [DB]2 [DA]2 [DA]2 | [GB]2 [EA]2 [DG]2 [EA]2 | [DG]2 [DF]2 [DG]4 |] %16
V:2
 [G,B,]2 [F,A,]2 G,2 [B,,G,]2 | [C,G,]2 [G,,G,]2 [D,G,]2 [D,F,]2 | G,2 [D,F,]2 [E,G,]2 [C,C]2 | %3
 [D,B,]2 [D,A,]2 [G,,B,]4 | [G,B,]2 [F,A,]2 G,2 [B,,G,]2 | [C,G,]2 [G,,G,]2 [D,G,]2 [D,F,]2 | %6
 G,2 [D,F,]2 [E,G,]2 [C,C]2 | [D,B,]2 [D,A,]2 [G,,B,]4 | [D,A,]2 [B,,B,]2 [A,,^C]2 [F,,A,]2 | %9
 [G,,B,]2 [D,A,]2 [A,,A,]2 [A,,A,]2 | [D,A,]2 [B,,B,]2 [A,,C]2 [G,,D]2 | [C,E]2 [G,D]2 [D,D]4 | %12
 [E,B,]2 [F,A,]2 G,2 [B,,G,]2 | [C,G,]2 [G,,G,]2 [D,G,]2 [D,F,]2 | %14
 [G,,D]2 [A,,C]2 [B,,G,]2 [C,C]2 | [D,B,]2 [D,B,]2 [G,,B,]4 |] %16
V:3
 x4 G,2 x2 | x8 | G,2 x6 | x8 | x4 G,2 x2 | x8 | G,2 x6 | x8 | x8 | x8 | x8 | x8 | x4 G,2 x2 | x8 | %14
 x8 | x8 |] %16

